dist/svgs/file-csv-full.svg

<!-- Generated by IcoMoon.io -->
<svg version="1.1" xmlns="http://www.w3.org/2000/svg" width="24" height="24" viewBox="0 0 24 24">
<title>file-csv-full</title>
<path d="M1 1v22c0 0.552 0.448 1 1 1h20c0.552 0 1-0.448 1-1v-22c0-0.552-0.448-1-1-1h-20c-0.552 0-1 0.448-1 1zM12 18h-7v-2h7v2zM19 13h-14v-2h14v2zM19 8h-14v-2h14v2z"></path>
</svg>

<svg xmlns="http://www.w3.org/2000/svg" width="24" height="24" viewBox="0 0 24 24"><title>file-csv-full</title><path d="M1 1v22a1 1 0 0 0 1 1h20a1 1 0 0 0 1-1V1a1 1 0 0 0-1-1H2a1 1 0 0 0-1 1zm11 17H5v-2h7v2zm7-5H5v-2h14v2zm0-5H5V6h14v2z"/></svg>
